images/categories-baby.svg

<svg fill="none" height="76" viewBox="0 0 76 76" width="76" xmlns="http://www.w3.org/2000/svg"><circle cx="38" cy="38" fill="#e4e4e4" r="38"/><g fill="#000"><path d="m48.8334 24.3334c-3.2162 0-5.8334 2.6172-5.8334 5.8333 0 .4607.3727.8334.8334.8334.4606 0 .8333-.3727.8333-.8334-.0001-2.2974 1.8692-4.1667 4.1667-4.1667.4606 0 .8333-.3727.8333-.8333-.0001-.4606-.3727-.8333-.8333-.8333z"/><path d="m28.4882 31.4883c-.6503.6494-.6503 1.7073 0 2.3568.3247.3246.7519.4875 1.1783.4875s.8537-.1628 1.1784-.4875c.6502-.6495.6502-1.7074 0-2.3568-.6494-.6494-1.7073-.6494-2.3567 0z"/><path d="m45.155 50.5117c.3247.3247.752.4875 1.1784.4875s.8537-.1627 1.1784-.4875c.6502-.6494.6502-1.7073 0-2.3568-.6495-.6494-1.7074-.6494-2.3568 0-.6502.6495-.6502 1.7075 0 2.3568z"/><path d="m55.3167 23.6837c-2.3092-2.3091-5.6196-3.2044-8.8519-2.3872-3.9144.9857-6.6477 4.584-6.8015 8.9548-.0159.4544-.1602.933-.389 1.4167-4.5976-3.6233-9.0977-5.6918-12.1338-5.667-1.26.035-2.2677.4208-2.9954 1.1484-.7276.7277-1.1135 1.7354-1.1485 2.9961-.067 2.5174 1.2969 5.8968 3.683 9.4725-2.0864.4119-4.0121 1.3898-5.512 2.8903-4.2244 4.2243-4.2244 11.0986 0 15.3229 2.1123 2.1121 4.8871 3.1686 7.6619 3.1686 2.7747 0 5.5496-1.0565 7.6618-3.1686 1.5012-1.5018 2.4795-3.4282 2.8908-5.5151 3.4903 2.3288 6.7941 3.6879 9.2901 3.6879.0619 0 .1229-.0008.184-.0025 1.26-.0333 2.2677-.4199 2.9945-1.1467.7277-.7277 1.1143-1.7354 1.1477-2.9945.0818-3.0461-2.0352-7.5366-5.6657-12.1353.4833-.2285.9618-.3727 1.416-.3885 4.3702-.1539 7.9695-2.8871 8.9552-6.802.8141-3.233-.078-6.5416-2.3872-8.8508zm-20.0021 32.9647c-3.5743 3.5742-9.3897 3.5742-12.9639 0-3.5743-3.5742-3.5743-9.3897 0-12.9639 1.441-1.441 3.3421-2.3477 5.3919-2.5821.3866.525.785 1.0486 1.212 1.5761-4.1568-.1184-7.6227 3.3148-7.622 7.4879 0 4.1358 3.3643 7.5 7.5 7.5s7.5-3.3643 7.5-7.5c0-.0393-.0105-.0802-.0112-.1195.5273.4267 1.0506.8232 1.5753 1.2096-.2344 2.05-1.1412 3.9502-2.5821 5.3919zm-.9514-8.2641c.2035.6144.3028 1.1995.3028 1.7823 0 3.2161-2.6172 5.8333-5.8334 5.8333-3.2161-.0001-5.8333-2.6173-5.8333-5.8334 0-3.2162 2.6172-5.8334 5.8334-5.8334.5826 0 1.1678.0993 1.7823.3027.5802.6454 1.1849 1.2891 1.8221 1.9263v.0008c.6371.6357 1.2808 1.2412 1.9261 1.8214zm16.967 3.4277c-.0212.8187-.2434 1.4437-.66 1.8596-.4151.4158-1.0401.638-1.8595.6592-2.3844.0805-5.8707-1.4925-9.5309-4.1232-.0104-.0082-.0141-.0219-.0248-.0296-.9306-.6669-1.8388-1.3845-2.7277-2.1327-.0982-.0834-.1963-.1624-.2942-.2471-.8981-.7691-1.7751-1.572-2.6178-2.4144-.8439-.8443-1.6492-1.7237-2.4205-2.6248-.0786-.0912-.1522-.1822-.2297-.2735-.752-.8928-1.4729-1.8059-2.144-2.7414-.0073-.0102-.0205-.0135-.0283-.0233-2.623-3.6518-4.1897-7.13-4.1253-9.5307.022-.8195.2442-1.4461.66-1.8619.4159-.4159 1.0425-.6381 1.8612-.66 2.672-.0996 6.9047 1.9975 11.1941 5.4135-.6857.8823-1.5566 1.7195-2.3986 2.3876-.9017.7169-1.1881 1.9955-.6811 3.0404.4191.8626 1.1247 2.0972 2.1069 3.0794.9823.9823 2.2168 1.6878 3.0795 2.107.3467.1684.7194.249 1.088.249.7439 0 1.473-.3271 1.9524-.9301.668-.8418 1.5051-1.7127 2.3872-2.3982 3.4146 4.291 5.4854 8.5365 5.4131 11.1952zm4.7551-19.6851c-.8025 3.1877-3.7753 5.4151-7.3959 5.5429-2.9053.1017-5.6828 3.3235-6.4648 4.3082-.2344.2963-.6584.389-1.0075.2189-.7471-.3629-1.81-.9675-2.6286-1.7863-.8187-.8187-1.4234-1.8815-1.7864-2.6286-.1693-.3491-.0773-.7722.2189-1.0075.9847-.782 4.2066-3.5596 4.3083-6.4648.1278-3.6214 2.3552-6.5935 5.5421-7.3959.6502-.1636 1.3037-.2441 1.9474-.2441 1.9897 0 3.8891.7658 5.3174 2.1932 1.8897 1.8905 2.6188 4.6061 1.9491 7.264z"/></g></svg>

<svg width="76" height="76" viewBox="0 0 76 76" fill="none" xmlns="http://www.w3.org/2000/svg">
<circle cx="38" cy="38" r="38" fill="#E4E4E4"/>
<path d="M48.8334 24.3334C45.6172 24.3334 43 26.9506 43 30.1667C43 30.6274 43.3727 31.0001 43.8334 31.0001C44.294 31.0001 44.6667 30.6274 44.6667 30.1667C44.6666 27.8693 46.5359 26 48.8334 26C49.294 26 49.6667 25.6273 49.6667 25.1667C49.6666 24.7061 49.294 24.3334 48.8334 24.3334Z" fill="black"/>
<path d="M28.4882 31.4883C27.8379 32.1377 27.8379 33.1956 28.4882 33.8451C28.8129 34.1697 29.2401 34.3326 29.6665 34.3326C30.0929 34.3326 30.5202 34.1698 30.8449 33.8451C31.4951 33.1956 31.4951 32.1377 30.8449 31.4883C30.1955 30.8389 29.1376 30.8389 28.4882 31.4883Z" fill="black"/>
<path d="M45.155 50.5117C45.4797 50.8364 45.907 50.9992 46.3334 50.9992C46.7598 50.9992 47.1871 50.8365 47.5118 50.5117C48.162 49.8623 48.162 48.8044 47.5118 48.1549C46.8623 47.5055 45.8044 47.5055 45.155 48.1549C44.5048 48.8044 44.5048 49.8624 45.155 50.5117Z" fill="black"/>
<path d="M55.3167 23.6837C53.0075 21.3746 49.6971 20.4793 46.4648 21.2965C42.5504 22.2822 39.8171 25.8805 39.6633 30.2513C39.6474 30.7057 39.5031 31.1843 39.2743 31.668C34.6767 28.0447 30.1766 25.9762 27.1405 26.001C25.8805 26.036 24.8728 26.4218 24.1451 27.1494C23.4175 27.8771 23.0316 28.8848 22.9966 30.1455C22.9296 32.6629 24.2935 36.0423 26.6796 39.618C24.5932 40.0299 22.6675 41.0078 21.1676 42.5083C16.9432 46.7326 16.9432 53.6069 21.1676 57.8312C23.2799 59.9433 26.0547 60.9998 28.8295 60.9998C31.6042 60.9998 34.3791 59.9433 36.4913 57.8312C37.9925 56.3294 38.9708 54.403 39.3821 52.3161C42.8724 54.6449 46.1762 56.004 48.6722 56.004C48.7341 56.004 48.7951 56.0032 48.8562 56.0015C50.1162 55.9682 51.1239 55.5816 51.8507 54.8548C52.5784 54.1271 52.965 53.1194 52.9984 51.8603C53.0802 48.8142 50.9632 44.3237 47.3327 39.725C47.816 39.4965 48.2945 39.3523 48.7487 39.3365C53.1189 39.1826 56.7182 36.4494 57.7039 32.5345C58.518 29.3015 57.6259 25.9929 55.3167 23.6837ZM35.3146 56.6484C31.7403 60.2226 25.9249 60.2226 22.3507 56.6484C18.7764 53.0742 18.7764 47.2587 22.3507 43.6845C23.7917 42.2435 25.6928 41.3368 27.7426 41.1024C28.1292 41.6274 28.5276 42.151 28.9546 42.6785C24.7978 42.5601 21.3319 45.9933 21.3326 50.1664C21.3326 54.3022 24.6969 57.6664 28.8326 57.6664C32.9683 57.6664 36.3326 54.3021 36.3326 50.1664C36.3326 50.1271 36.3221 50.0862 36.3214 50.0469C36.8487 50.4736 37.372 50.8701 37.8967 51.2565C37.6623 53.3065 36.7555 55.2067 35.3146 56.6484ZM34.3632 48.3843C34.5667 48.9987 34.666 49.5838 34.666 50.1666C34.666 53.3827 32.0488 55.9999 28.8326 55.9999C25.6165 55.9998 22.9993 53.3826 22.9993 50.1665C22.9993 46.9503 25.6165 44.3331 28.8327 44.3331C29.4153 44.3331 30.0005 44.4324 30.615 44.6358C31.1952 45.2812 31.7999 45.9249 32.4371 46.5621C32.4371 46.5621 32.4371 46.5621 32.4371 46.5629C33.0742 47.1986 33.7179 47.8041 34.3632 48.3843ZM51.3302 51.812C51.309 52.6307 51.0868 53.2557 50.6702 53.6716C50.2551 54.0874 49.6301 54.3096 48.8107 54.3308C46.4263 54.4113 42.94 52.8383 39.2798 50.2076C39.2694 50.1994 39.2657 50.1857 39.255 50.178C38.3244 49.5111 37.4162 48.7935 36.5273 48.0453C36.4291 47.9619 36.331 47.8829 36.2331 47.7982C35.335 47.0291 34.458 46.2262 33.6153 45.3838C32.7714 44.5395 31.9661 43.6601 31.1948 42.759C31.1162 42.6678 31.0426 42.5768 30.9651 42.4855C30.2131 41.5927 29.4922 40.6796 28.8211 39.7441C28.8138 39.7339 28.8006 39.7306 28.7928 39.7208C26.1698 36.069 24.6031 32.5908 24.6675 30.1901C24.6895 29.3706 24.9117 28.744 25.3275 28.3282C25.7434 27.9123 26.37 27.6901 27.1887 27.6682C29.8607 27.5686 34.0934 29.6657 38.3828 33.0817C37.6971 33.964 36.8262 34.8012 35.9842 35.4693C35.0825 36.1862 34.7961 37.4648 35.3031 38.5097C35.7222 39.3723 36.4278 40.6069 37.41 41.5891C38.3923 42.5714 39.6268 43.2769 40.4895 43.6961C40.8362 43.8645 41.2089 43.9451 41.5775 43.9451C42.3214 43.9451 43.0505 43.618 43.5299 43.015C44.1979 42.1732 45.035 41.3023 45.9171 40.6168C49.3317 44.9078 51.4025 49.1533 51.3302 51.812ZM56.0853 32.1269C55.2828 35.3146 52.31 37.542 48.6894 37.6698C45.7841 37.7715 43.0066 40.9933 42.2246 41.978C41.9902 42.2743 41.5662 42.367 41.2171 42.1969C40.47 41.834 39.4071 41.2294 38.5885 40.4106C37.7698 39.5919 37.1651 38.5291 36.8021 37.782C36.6328 37.4329 36.7248 37.0098 37.021 36.7745C38.0057 35.9925 41.2276 33.2149 41.3293 30.3097C41.4571 26.6883 43.6845 23.7162 46.8714 22.9138C47.5216 22.7502 48.1751 22.6697 48.8188 22.6697C50.8085 22.6697 52.7079 23.4355 54.1362 24.8629C56.0259 26.7534 56.755 29.469 56.0853 32.1269Z" fill="black"/>
</svg>
